static/logos/feedly-glyph-color.svg

<svg width="50" height="45" viewBox="0 0 50 45" fill="none" xmlns="http://www.w3.org/2000/svg">
<g clip-path="url(#clip0_1_2784)">
<path fill-rule="evenodd" clip-rule="evenodd" d="M21.0093 1.62573C23.1353 -0.541912 26.6123 -0.541912 28.7371 1.62573L48.1644 21.4313C50.288 23.5965 50.288 27.1441 48.1644 29.3118L34.5768 43.1632C33.583 44.1765 32.2094 44.8025 30.6939 44.8025H19.0549C17.6742 44.8025 16.4143 44.2838 15.4476 43.4274L1.59271 29.3009C-0.530904 27.1345 -0.530904 23.5893 1.59271 21.4216L21.0093 1.62573ZM28.1964 37.7821L26.2586 39.7579C26.1166 39.9027 25.9202 39.992 25.7037 39.992H24.0439C23.8463 39.992 23.6676 39.9184 23.528 39.7953L21.5523 37.7797C21.2506 37.4721 21.2506 36.9667 21.5523 36.6567L24.3219 33.8328C24.6259 33.5228 25.1228 33.5228 25.4245 33.8328L28.1964 36.6579C28.5005 36.9667 28.5005 37.4721 28.1964 37.7821ZM28.1964 25.933L20.4474 33.834C20.3042 33.9788 20.109 34.068 19.8937 34.068H18.2326C18.0362 34.068 17.8552 33.9944 17.718 33.8714L15.7411 31.857C15.4382 31.547 15.4382 31.0403 15.7411 30.7327L24.3219 21.9837C24.6259 21.6749 25.1228 21.6749 25.4257 21.9837L28.1964 24.8088C28.5005 25.1176 28.5005 25.6243 28.1964 25.933ZM28.1964 14.084L14.6372 27.9089C14.4929 28.0536 14.2977 28.1429 14.0824 28.1429H12.4225C12.2261 28.1429 12.0452 28.0693 11.9079 27.9463L9.92983 25.9306C9.62695 25.623 9.62695 25.1164 9.92983 24.8064L24.3219 10.1334C24.6259 9.82345 25.1205 9.82345 25.4245 10.1334L28.1964 12.9597C28.5005 13.2685 28.5005 13.7752 28.1964 14.084Z" fill="#26A943"/>
</g>
<defs>
<clipPath id="clip0_1_2784">
<rect width="50" height="44.8276" fill="white"/>
</clipPath>
</defs>
</svg>

<svg xmlns="http://www.w3.org/2000/svg" width="71.111" height="64" fill="none" viewBox="0 0 50 45"><g clip-path="url(#a)"><path fill="#26A943" fill-rule="evenodd" d="M21.01 1.626a5.405 5.405 0 0 1 7.727 0L48.164 21.43c2.124 2.165 2.124 5.713 0 7.88L34.577 43.164a5.422 5.422 0 0 1-3.883 1.64h-11.64c-1.38 0-2.64-.52-3.606-1.376L1.593 29.301c-2.124-2.166-2.124-5.712 0-7.88L21.009 1.627Zm7.186 36.156-1.937 1.976a.775.775 0 0 1-.555.234h-1.66a.774.774 0 0 1-.516-.197l-1.976-2.015a.81.81 0 0 1 0-1.123l2.77-2.824a.77.77 0 0 1 1.102 0l2.772 2.825a.807.807 0 0 1 0 1.124Zm0-11.849-7.749 7.901a.776.776 0 0 1-.553.234h-1.661a.769.769 0 0 1-.515-.197l-1.977-2.014a.81.81 0 0 1 0-1.124l8.58-8.75a.773.773 0 0 1 1.105 0l2.77 2.826a.807.807 0 0 1 0 1.124Zm0-11.849L14.637 27.909a.781.781 0 0 1-.555.234h-1.66a.77.77 0 0 1-.514-.197L9.93 25.931a.809.809 0 0 1 0-1.125l14.392-14.673a.77.77 0 0 1 1.102 0l2.772 2.827a.807.807 0 0 1 0 1.124Z" clip-rule="evenodd"/></g><defs><clipPath id="a"><path fill="#fff" d="M0 0h50v44.828H0z"/></clipPath></defs></svg>
